fa/svgs/regular/newspaper.svg

<svg xmlns="http://www.w3.org/2000/svg" viewBox="0 0 512 512"><!--! Font Awesome Free 6.1.1 by @fontawesome - https://fontawesome.com License - https://fontawesome.com/license/free (Icons: CC BY 4.0, Fonts: SIL OFL 1.1, Code: MIT License) Copyright 2022 Fonticons, Inc.--><path d="M456 32H152c-30.9 0-56 25.13-56 56v320c0 13.22-10.77 24-24 24s-24-10.8-24-24V112c0-13.25-10.75-24-24-24S0 98.75 0 112v296c0 39.7 32.3 72 72 72h352c48.53 0 88-39.47 88-88V88c0-30.87-25.1-56-56-56zm8 360c0 22.06-17.94 40-40 40H139.9c2.6-7.5 4.1-15.6 4.1-24V88c0-4.406 3.594-8 8-8h304c4.406 0 8 3.594 8 8v304zM264 272h-64c-13.2 0-24 10.8-24 24s10.8 24 24 24h64c13.3 0 24-10.7 24-24s-10.7-24-24-24zm144 0h-64c-13.2 0-24 10.8-24 24s10.8 24 24 24h64c13.25 0 24-10.75 24-24s-10.7-24-24-24zm-144 80h-64c-13.25 0-24 10.75-24 24s10.75 24 24 24h64c13.25 0 24-10.75 24-24s-10.7-24-24-24zm144 0h-64c-13.2 0-24 10.8-24 24s10.75 24 24 24h64c13.25 0 24-10.75 24-24s-10.7-24-24-24zm-8-240H208c-17.67 0-32 14.33-32 32v64c0 17.67 14.33 32 32 32h192c17.67 0 32-14.33 32-32v-64c0-17.7-14.3-32-32-32z"/></svg>

<svg xmlns="http://www.w3.org/2000/svg" viewBox="0 0 512 512"><!--! Font Awesome Free 6.2.1 by @fontawesome - https://fontawesome.com License - https://fontawesome.com/license/free (Icons: CC BY 4.0, Fonts: SIL OFL 1.1, Code: MIT License) Copyright 2022 Fonticons, Inc. --><path d="M456 32h-304C121.1 32 96 57.13 96 88v320c0 13.22-10.77 24-24 24S48 421.2 48 408V112c0-13.25-10.75-24-24-24S0 98.75 0 112v296C0 447.7 32.3 480 72 480h352c48.53 0 88-39.47 88-88v-304C512 57.13 486.9 32 456 32zM464 392c0 22.06-17.94 40-40 40H139.9C142.5 424.5 144 416.4 144 408v-320c0-4.406 3.594-8 8-8h304c4.406 0 8 3.594 8 8V392zM264 272h-64C186.8 272 176 282.8 176 296S186.8 320 200 320h64C277.3 320 288 309.3 288 296S277.3 272 264 272zM408 272h-64C330.8 272 320 282.8 320 296S330.8 320 344 320h64c13.25 0 24-10.75 24-24S421.3 272 408 272zM264 352h-64c-13.25 0-24 10.75-24 24s10.75 24 24 24h64c13.25 0 24-10.75 24-24S277.3 352 264 352zM408 352h-64C330.8 352 320 362.8 320 376s10.75 24 24 24h64c13.25 0 24-10.75 24-24S421.3 352 408 352zM400 112h-192c-17.67 0-32 14.33-32 32v64c0 17.67 14.33 32 32 32h192c17.67 0 32-14.33 32-32v-64C432 126.3 417.7 112 400 112z"/></svg>
